images/ic_pln.svg

<svg width="20" height="20" viewBox="0 0 20 20" fill="none" xmlns="http://www.w3.org/2000/svg">
<path d="M17.0017 7.56684C16.6914 6.89129 16.0335 6.47164 15.2848 6.47164H12.6203L15.7767 1.1791C15.9204 0.938164 15.9236 0.638594 15.785 0.394688C15.6464 0.150703 15.3875 0 15.107 0H7.6997C7.40599 0 7.13712 0.165078 7.00431 0.42707L3.12364 8.07914C2.68939 8.9318 2.72868 9.92793 3.22872 10.7438C3.72884 11.5596 4.5986 12.0466 5.55548 12.0466H8.28458L5.57071 17.6146C5.20794 18.3511 5.41962 19.2007 6.0854 19.6809C6.38196 19.8948 6.71954 20 7.0545 20C7.47153 20 7.88446 19.8368 8.20849 19.517C8.22263 19.503 8.2363 19.4885 8.24931 19.4735L14.2921 12.519C14.5745 12.1939 14.54 11.7015 14.2149 11.419C13.8898 11.1365 13.3973 11.1711 13.1149 11.4962L7.09634 18.4229C7.07298 18.4427 7.04712 18.4518 6.99759 18.4161C6.93614 18.3718 6.95165 18.3403 6.97107 18.3009L10.2329 11.6085C10.3507 11.3668 10.3357 11.0815 10.1932 10.8536C10.0507 10.6256 9.80087 10.4871 9.532 10.4871H5.55544C5.13923 10.4871 4.77579 10.2836 4.55829 9.92875C4.34079 9.57391 4.32435 9.15766 4.5138 8.78559L8.17845 1.55941H13.734L10.5777 6.85199C10.434 7.09293 10.4308 7.3925 10.5693 7.63641C10.7079 7.88031 10.9668 8.03105 11.2474 8.03105H15.2847C15.471 8.03105 15.5525 8.14801 15.5846 8.21773C15.6174 8.28906 15.6538 8.43051 15.5292 8.57562C15.2486 8.90234 15.2859 9.39461 15.6126 9.6752C15.9394 9.95574 16.4317 9.91844 16.7122 9.59172C17.2023 9.02098 17.3132 8.24508 17.0017 7.56684Z" fill="#1A1A1A"/>
</svg>

<svg xmlns="http://www.w3.org/2000/svg" fill="none" viewBox="0 0 20 20"><path d="M17.002 7.567c-.3-.676-.968-1.095-1.717-1.095H12.62l3.156-5.292A.78.78 0 0 0 15.107 0H7.7a.78.78 0 0 0-.695.427L3.124 8.08a2.71 2.71 0 0 0 .105 2.665 2.71 2.71 0 0 0 2.327 1.303h2.73L5.57 17.615c-.363.736-.15 1.586.515 2.066.297.214.634.32.97.32.417 0 .83-.163 1.154-.483l.04-.044 6.043-6.954a.78.78 0 0 0-.077-1.1.78.78 0 0 0-1.1.077l-6.02 6.927c-.023.02-.05.03-.1-.007-.06-.044-.046-.076-.027-.115l3.262-6.692a.78.78 0 0 0-.701-1.121H5.556c-.416 0-.78-.203-.997-.558s-.234-.77-.044-1.143L8.18 1.56h5.556l-3.156 5.293a.78.78 0 0 0 .67 1.179h4.037c.186 0 .268.117.3.187a.32.32 0 0 1-.055.358.78.78 0 0 0 .083 1.1.78.78 0 0 0 1.1-.083c.5-.57.6-1.347.3-2.025z" fill="#1a1a1a"/></svg>
